;FLAVOR:Marlin
;TIME:4350
;Filament used: 4.81436m
;Layer height: 0.28
;MINX:90.568
;MINY:90.568
;MINZ:0.4
;MAXX:129.507
;MAXY:132.503
;MAXZ:91.29
;Generated with Cura_SteamEngine 4.4.1
M140 S70
M105
M190 S70
M104 S200
M105
M109 S200
M82 ;absolute extrusion mode
M201 X500.00 Y500.00 Z100.00 E5000.00 ;Setup machine max acceleration
M203 X500.00 Y500.00 Z10.00 E50.00 ;Setup machine max feedrate
M204 P500.00 R1000.00 T500.00 ;Setup Print/Retract/Travel acceleration
M205 X8.00 Y8.00 Z0.40 E5.00 ;Setup Jerk
M220 S100 ;Reset Feedrate
M221 S100 ;Reset Flowrate

G28 ;Home

G92 E0 ;Reset Extruder
G1 Z2.0 F3000 ;Move Z Axis up
G1 X10.1 Y20 Z0.28 F5000.0 ;Move to start position
G1 X10.1 Y200.0 Z0.28 F1500.0 E15 ;Draw the first line
G1 X10.4 Y200.0 Z0.28 F5000.0 ;Move to side a little
G1 X10.4 Y20 Z0.28 F1500.0 E30 ;Draw the second line
G92 E0 ;Reset Extruder
G1 Z2.0 F3000 ;Move Z Axis up

G92 E0
G92 E0
G1 F1500 E-10
;LAYER_COUNT:321
;LAYER:-6
M107
M205 X7 Y7
G0 F9000 X95.527 Y111.363 Z0.4
;TYPE:SUPPORT-INTERFACE
G1 F1500 E0
G1 F900 X95.634 Y111.277 E0.01826
G1 X95.986 Y111.043 E0.0745
G1 X96.379 Y110.867 E0.13179
G1 X96.781 Y110.762 E0.18706
G1 X97.157 Y110.722 E0.23737
G1 X97.284 Y110.718 E0.25427
G1 X97.469 Y110.72 E0.27889
G1 X97.8 Y110.736 E0.32297
G1 X98.053 Y110.742 E0.35664
G1 X112.773 Y110.75 E2.315
G1 X113.209 Y110.77 E2.37307
G1 X113.41 Y110.788 E2.39991
G1 X113.564 Y110.808 E2.42058
G1 X113.976 Y110.9 E2.47674
G1 X114.361 Y111.055 E2.53195
G1 X114.737 Y111.284 E2.59052
G1 X115.002 Y111.503 E2.63626
G1 X115.076 Y111.574 E2.6499
G1 X115.214 Y111.719 E2.67654
G1 X115.348 Y111.876 E2.704
G1 X115.436 Y111.991 E2.72326
G1 X115.634 Y112.295 E2.77153
G1 X115.668 Y112.357 E2.78094
G1 X115.826 Y112.728 E2.83458
G1 X115.932 Y113.156 E2.89325
G1 X115.966 Y113.51 E2.94056
G1 X115.969 Y113.619 E2.95506
G1 X115.966 Y113.765 E2.97449
G1 X115.942 Y114.386 E3.05717
G1 X115.903 Y129.422 E5.05758
G1 X115.895 Y129.612 E5.08288
G1 X115.881 Y129.774 E5.10451
G1 X115.806 Y130.201 E5.16219
G1 X115.678 Y130.567 E5.21377
G1 X115.452 Y130.978 E5.27617
G1 X115.249 Y131.244 E5.32069
G1 X115.155 Y131.35 E5.33954
G1 X115.016 Y131.492 E5.36598
G1 X114.868 Y131.625 E5.39245
G1 X114.75 Y131.722 E5.41277
G1 X114.449 Y131.932 E5.4616
G1 X114.397 Y131.962 E5.46959
G1 X114.016 Y132.138 E5.52542
G1 X113.662 Y132.241 E5.57447
G1 X113.601 Y132.253 E5.58274
G1 X113.257 Y132.297 E5.62888
G1 X112.839 Y132.303 E5.6845
G1 X100.622 Y132.243 E7.30987
G1 X97.26 Y132.233 E7.75716
G1 X97.062 Y132.224 E7.78353
G1 X96.907 Y132.211 E7.80422
G1 X96.48 Y132.136 E7.8619
G1 X96.099 Y132 E7.91572
G1 X95.722 Y131.794 E7.97287
G1 X95.424 Y131.568 E8.02263
G1 X95.342 Y131.494 E8.03733
G1 X95.174 Y131.329 E8.06865
G1 X95.062 Y131.204 E8.09098
G1 X94.961 Y131.081 E8.11216
G1 X94.726 Y130.738 E8.16747
G1 X94.545 Y130.351 E8.22431
G1 X94.429 Y129.932 E8.28215
G1 X94.386 Y129.579 E8.32946
G1 X94.379 Y129.438 E8.34825
G1 X94.381 Y129.098 E8.39348
G1 X94.441 Y116.965 E10.00768
G1 X94.452 Y113.597 E10.45576
G1 X94.46 Y113.403 E10.4816
G1 X94.473 Y113.245 E10.50269
G1 X94.545 Y112.836 E10.55794
G1 X94.688 Y112.429 E10.61533
G1 X94.897 Y112.051 E10.67279
G1 X95.116 Y111.766 E10.72061
G1 X95.208 Y111.663 E10.73899
G1 X95.373 Y111.497 E10.77012
G1 X95.527 Y111.363 E10.79728
G0 F9000 X95.2 Y111.671
G1 F900 X95.2 Y131.354 E13.41592
G0 F9000 X96 Y131.945
G1 F900 X96 Y111.036 E16.19766
G0 F9000 X96.8 Y110.759
G1 F900 X96.8 Y132.192 E19.04912
G0 F9000 X97.6 Y132.234
G1 F900 X97.6 Y110.727 E21.91043
G0 F9000 X98.4 Y110.743
G1 F900 X98.4 Y132.236 E24.76987
G0 F9000 X99.2 Y132.238
G1 F900 X99.2 Y110.743 E27.62957
G0 F9000 X100 Y110.744
G1 F900 X100 Y132.241 E30.48954
G0 F9000 X100.8 Y132.243
G1 F900 X100.8 Y110.744 E33.34978
G0 F9000 X101.6 Y110.744
G1 F900 X101.6 Y132.247 E36.21055
G0 F9000 X102.4 Y132.251
G1 F900 X102.4 Y110.745 E39.07172
G0 F9000 X103.2 Y110.745
G1 F900 X103.2 Y132.255 E41.93343
G0 F9000 X104 Y132.259
G1 F900 X104 Y110.746 E44.79553
G0 F9000 X104.8 Y110.746
G1 F900 X104.8 Y132.263 E47.65816
G0 F9000 X105.6 Y132.267
G1 F900 X105.6 Y110.747 E50.52119
G0 F9000 X106.4 Y110.747
G1 F900 X106.4 Y132.271 E53.38476
G0 F9000 X107.2 Y132.275
G1 F900 X107.2 Y110.747 E56.24885
G0 F9000 X108 Y110.748
G1 F900 X108 Y132.279 E59.11335
G0 F9000 X108.8 Y132.283
G1 F900 X108.8 Y110.748 E61.97838
G0 F9000 X109.6 Y110.749
G1 F900 X109.6 Y132.287 E64.84381
G0 F9000 X110.4 Y132.291
G1 F900 X110.4 Y110.749 E67.70976
G0 F9000 X111.2 Y110.75
G1 F900 X111.2 Y132.294 E70.57599
G0 F9000 X112 Y132.298
G1 F900 X112 Y110.75 E73.44275
G0 F9000 X112.8 Y110.752
G1 F900 X112.8 Y132.302 E76.30977
G0 F9000 X113.6 Y132.254
G1 F900 X113.6 Y110.817 E79.16176
G0 F9000 X114.4 Y111.079
G1 F900 X114.4 Y131.961 E81.93991
G0 F9000 X115.2 Y131.3
G1 F900 X115.2 Y111.705 E84.54684
G0 F9000 X94.4 Y125.255
G1 F900 X94.4 Y129.693 E85.13728
G0 F300 X94.4 Y129.693 Z0.7
G0 F9000 X94.408 Y129.763
;TIME_ELAPSED:50.082956
;LAYER:-5
M140 S60
;TYPE:SUPPORT
G1 F900 X96.843 Y132.198 E85.48088
G1 X96.479 Y132.134 E85.51776
G1 X96.099 Y131.999 E85.558
G1 X95.722 Y131.793 E85.60086
G1 X95.424 Y131.567 E85.63818
G1 X95.342 Y131.493 E85.6492
G1 X95.173 Y131.328 E85.67277
G1 X95.062 Y131.203 E85.68945
G1 X94.96 Y131.079 E85.70547
G1 X94.726 Y130.737 E85.74682
G1 X94.545 Y130.35 E85.78945
G1 X94.429 Y129.931 E85.83283
G0 F9000 X96.843 Y132.198
G1 F900 X96.906 Y132.209 E85.83921
G1 X97.061 Y132.223 E85.85474
G1 X97.26 Y132.232 E85.87462
G1 X98.294 Y132.235 E85.97779
G1 X94.384 Y128.325 E86.52953
G1 X94.391 Y126.918 E86.66993
G1 X99.712 Y132.239 E87.42078
G1 X100.622 Y132.242 E87.51158
G1 X101.131 Y132.244 E87.56237
G1 X94.398 Y125.511 E88.51247
G1 X94.405 Y124.103 E88.65296
G1 X102.553 Y132.251 E89.80273
G1 X103.974 Y132.258 E89.94452
G1 X94.412 Y122.696 E91.29382
G1 X94.419 Y121.289 E91.43421
G1 X105.395 Y132.265 E92.98304
G1 X106.816 Y132.272 E93.12483
G1 X94.426 Y119.882 E94.8732
G1 X94.433 Y118.475 E95.01359
G1 X108.237 Y132.279 E96.96148
G1 X109.658 Y132.286 E97.10327
G1 X94.44 Y117.067 E99.25077
G1 X94.441 Y116.963 E99.26115
G1 X94.444 Y115.657 E99.39146
G1 X111.08 Y132.293 E101.73898
G1 X112.501 Y132.3 E101.88077
G1 X94.449 Y114.248 E104.4281
G1 X94.451 Y113.595 E104.49326
G1 X94.46 Y113.402 E104.51254
G1 X94.473 Y113.243 E104.52845
G1 X94.53 Y112.915 E104.56167
G1 X113.811 Y132.196 E107.28243
G1 X114.016 Y132.137 E107.30372
G1 X114.397 Y131.961 E107.34559
G1 X114.448 Y131.931 E107.3515
G1 X114.749 Y131.721 E107.38812
G0 F9000 X114.75 Y131.721
G1 F900 X94.975 Y111.946 E110.17858
G1 X95.115 Y111.765 E110.20142
G1 X95.207 Y111.662 E110.2152
G1 X95.373 Y111.496 E110.23862
G1 X95.527 Y111.362 E110.25899
G1 X95.634 Y111.276 E110.27269
G1 X95.686 Y111.242 E110.27889
G1 X115.438 Y130.995 E113.06618
G1 X115.452 Y130.977 E113.06845
G1 X115.677 Y130.566 E113.1152
G1 X115.806 Y130.2 E113.15393
G1 X115.844 Y129.986 E113.17561
G1 X96.653 Y110.795 E115.88367
G1 X96.78 Y110.761 E115.89679
G1 X97.157 Y110.72 E115.93463
G1 X97.283 Y110.717 E115.9472
G1 X97.469 Y110.718 E115.96576
G1 X97.799 Y110.735 E115.99873
G1 X98.012 Y110.74 E116.01999
G1 X115.904 Y128.632 E118.54475
G1 X115.908 Y127.222 E118.68544
G1 X99.429 Y110.742 E121.01087
G1 X100.844 Y110.743 E121.15206
G1 X115.912 Y125.811 E123.27832
G1 X115.916 Y124.401 E123.41901
G1 X102.258 Y110.744 E125.34623
G1 X103.673 Y110.744 E125.48742
G1 X115.919 Y122.99 E127.21547
G1 X115.923 Y121.579 E127.35626
G1 X105.088 Y110.745 E128.88512
G1 X106.503 Y110.746 E129.02631
G1 X115.926 Y120.169 E130.356
G1 X115.93 Y118.759 E130.49669
G1 X107.919 Y110.747 E131.6272
G1 X109.334 Y110.748 E131.76839
G1 X115.934 Y117.348 E132.69972
G1 X115.937 Y115.937 E132.84051
G1 X110.749 Y110.749 E133.57259
G1 X112.164 Y110.749 E133.71378
G1 X115.941 Y114.527 E134.24683
G1 X115.941 Y114.385 E134.261
G1 X115.965 Y113.764 E134.32301
G1 X115.968 Y113.619 E134.33748
G1 X115.965 Y113.51 E134.34836
G1 X115.93 Y113.156 E134.38385
G1 X115.913 Y113.085 E134.39114
G1 X113.657 Y110.829 E134.70948
G1 X113.975 Y110.899 E134.74197
G1 X114.36 Y111.055 E134.78342
G1 X114.735 Y111.283 E134.82721
G1 X115.001 Y111.502 E134.86159
G1 X115.075 Y111.573 E134.87182
G1 X115.213 Y111.718 E134.8918
G1 X115.347 Y111.875 E134.91239
G1 X115.435 Y111.991 E134.92692
G1 X115.633 Y112.294 E134.96304
G1 X115.667 Y112.357 E134.97018
G1 X115.825 Y112.728 E135.01042
G0 F300 X115.825 Y112.728 Z0.98
G0 F9000 X114.257 Y110.8
;TIME_ELAPSED:84.423198
;LAYER:-4
;TYPE:SUPPORT-INTERFACE
G1 F1200 X96.045 Y110.8 E135.85844
G1 X95.838 Y110.898 E135.86911
G1 X95.522 Y111.111 E135.88685
G1 X95.413 Y111.2 E135.89341
G1 X114.951 Y111.2 E136.80318
G1 X115.134 Y111.352 E136.81425
G1 X115.22 Y111.435 E136.81982
G1 X115.331 Y111.55 E136.82726
G1 X115.375 Y111.6 E136.83036
G1 X94.997 Y111.6 E137.77925
G1 X94.963 Y111.637 E137.78159
G1 X94.729 Y111.942 E137.79949
G1 X94.695 Y111.994 E137.80238
G1 X94.692 Y112 E137.80269
G1 X115.679 Y112 E138.77994
G1 X115.844 Y112.26 E138.79428
G1 X115.904 Y112.4 E138.80137
G1 X94.487 Y112.4 E139.79863
G1 X94.356 Y112.769 E139.81687
G1 X94.349 Y112.8 E139.81835
G1 X116.051 Y112.8 E140.82888
G1 X116.13 Y113.125 E140.84446
G1 X116.138 Y113.2 E140.84797
G1 X94.278 Y113.2 E141.86586
G1 X94.273 Y113.228 E141.86719
G1 X94.261 Y113.379 E141.87424
G1 X94.252 Y113.589 E141.88403
G1 X94.252 Y113.6 E141.88454
G1 X116.169 Y113.6 E142.90509
G1 X116.169 Y113.623 E142.90616
G1 X116.166 Y113.775 E142.91324
G1 X116.157 Y114 E142.92372
G1 X94.251 Y114 E143.94376
G1 X94.25 Y114.4 E143.96238
G1 X116.141 Y114.4 E144.98172
G1 X116.14 Y114.8 E145.00034
G1 X94.249 Y114.8 E146.01968
G1 X94.247 Y115.2 E146.03831
G1 X116.139 Y115.2 E147.05769
G1 X116.138 Y115.6 E147.07632
G1 X94.246 Y115.6 E148.0957
G1 X94.245 Y116 E148.11432
G1 X116.137 Y116 E149.13371
G1 X116.136 Y116.4 E149.15233
G1 X94.243 Y116.4 E150.17176
G1 X94.242 Y116.8 E150.19039
G1 X116.135 Y116.8 E151.20982
G1 X116.134 Y117.2 E151.22844
G1 X94.24 Y117.2 E152.24792
G1 X94.238 Y117.6 E152.26655
G1 X116.133 Y117.6 E153.28607
G1 X116.132 Y118 E153.3047
G1 X94.236 Y118 E154.32427
G1 X94.234 Y118.4 E154.34289
G1 X116.131 Y118.4 E155.36251
G1 X116.13 Y118.8 E155.38113
G1 X94.232 Y118.8 E156.4008
G1 X94.229 Y119.2 E156.41942
G1 X116.128 Y119.2 E157.43913
G1 X116.127 Y119.6 E157.45776
G1 X94.227 Y119.6 E158.47751
G1 X94.225 Y120 E158.49614
G1 X116.126 Y120 E159.51594
G1 X116.125 Y120.4 E159.53457
G1 X94.224 Y120.4 E160.55437
G1 X94.222 Y120.8 E160.57299
G1 X116.124 Y120.8 E161.59284
G1 X116.123 Y121.2 E161.61147
G1 X94.22 Y121.2 E162.63136
G1 X94.218 Y121.6 E162.64999
G1 X116.122 Y121.6 E163.66993
G1 X116.121 Y122 E163.68856
G1 X94.216 Y122 E164.70855
G1 X94.214 Y122.4 E164.72717
G1 X116.12 Y122.4 E165.74721
G1 X116.119 Y122.8 E165.76583
G1 X94.212 Y122.8 E166.78592
G1 X94.21 Y123.2 E166.80454
G1 X116.118 Y123.2 E167.82467
G1 X116.117 Y123.6 E167.8433
G1 X94.208 Y123.6 E168.86347
G1 X94.206 Y124 E168.8821
G1 X116.116 Y124 E169.90232
G1 X116.115 Y124.4 E169.92094
G1 X94.204 Y124.4 E170.94121
G1 X94.202 Y124.8 E170.95984
G1 X116.114 Y124.8 E171.98015
G1 X116.112 Y125.2 E171.99878
G1 X94.2 Y125.2 E173.01909
G1 X94.198 Y125.6 E173.03772
G1 X116.111 Y125.6 E174.05808
G1 X116.11 Y126 E174.0767
G1 X94.196 Y126 E175.09711
G1 X94.194 Y126.4 E175.11574
G1 X116.109 Y126.4 E176.13619
G1 X116.108 Y126.8 E176.15482
G1 X94.192 Y126.8 E177.17532
G1 X94.19 Y127.2 E177.19394
G1 X116.107 Y127.2 E178.21449
G1 X116.106 Y127.6 E178.23312
G1 X94.188 Y127.6 E179.25371
G1 X94.186 Y128 E179.27234
G1 X116.105 Y128 E180.29298
G1 X116.104 Y128.4 E180.3116
G1 X94.184 Y128.4 E181.33229
G1 X94.182 Y128.8 E181.35092
G1 X116.103 Y128.8 E182.37165
G1 X116.102 Y129.2 E182.39028
G1 X94.18 Y129.2 E183.41106
G1 X94.178 Y129.447 E183.42256
G1 X94.184 Y129.584 E183.42894
G1 X94.185 Y129.6 E183.42969
G1 X116.094 Y129.6 E184.44986
G1 X116.093 Y129.637 E184.45159
G1 X116.08 Y129.799 E184.45916
G1 X116.046 Y130 E184.46865
G1 X94.237 Y130 E185.48417
G1 X94.244 Y130.034 E185.48578
G1 X94.349 Y130.4 E185.50351
G1 X115.947 Y130.4 E186.50921
G1 X115.874 Y130.615 E186.51978
G1 X115.847 Y130.675 E186.52284
G1 X115.78 Y130.8 E186.52945
G1 X94.532 Y130.8 E187.51884
G1 X94.543 Y130.823 E187.52003
G1 X94.575 Y130.879 E187.52303
G1 X94.799 Y131.2 E187.54126
G1 X115.533 Y131.2 E188.50672
G1 X115.398 Y131.378 E188.51712
G1 X115.308 Y131.478 E188.52339
G1 X115.19 Y131.6 E188.53129
G1 X95.162 Y131.6 E189.46388
G1 X95.198 Y131.635 E189.46622
G1 X95.298 Y131.724 E189.47245
G1 X95.592 Y131.948 E189.48966
G1 X95.665 Y131.995 E189.4937
G1 X95.674 Y132 E189.49418
G1 X114.7 Y132 E190.38011
G1 X114.551 Y132.104 E190.38857
G1 X114.487 Y132.14 E190.39199
G1 X114.15 Y132.301 E190.40938
G1 X114.081 Y132.327 E190.41282
G1 X113.83 Y132.4 E190.42499
G1 X96.815 Y132.4 E191.21728
G0 F9000 X96.881 Y132.411
G1 F1200 X97.042 Y132.424 E191.2248
G1 X97.251 Y132.433 E191.23454
G1 X100.632 Y132.443 E191.39198
G1 X112.836 Y132.503 E191.96025
G1 X113.278 Y132.496 E191.98084
G1 X113.622 Y132.452 E191.99699
G1 X113.71 Y132.435 E192.00116
G1 X113.83 Y132.4 E192.00698
G0 F9000 X113.989 Y110.695
G1 F1200 X113.581 Y110.608 E192.0264
G1 X113.444 Y110.59 E192.03284
G1 X113.218 Y110.57 E192.0434
G1 X112.782 Y110.55 E192.06373
G1 X98.056 Y110.542 E192.74943
G1 X97.808 Y110.536 E192.76098
G1 X97.479 Y110.52 E192.77632
G1 X97.28 Y110.518 E192.78559
G1 X97.144 Y110.522 E192.79192
G1 X96.759 Y110.563 E192.80995
G1 X96.682 Y110.577 E192.81359
G1 X96.318 Y110.677 E192.83117
G1 X96.26 Y110.698 E192.83404
G1 X96.045 Y110.8 E192.84513
G0 F300 X96.045 Y110.8 Z1.26
G0 F9000 X116.018 Y130.17
;TIME_ELAPSED:149.799786
;LAYER:-3
;TYPE:SUPPORT-INTERFACE
G1 F1200 X116.08 Y129.798 E192.86269
G1 X116.093 Y129.636 E192.87025
G1 X116.102 Y129.429 E192.8799
G1 X116.141 Y114.388 E193.58028
G1 X116.165 Y113.774 E193.60889
G1 X116.168 Y113.622 E193.61597
G1 X116.165 Y113.493 E193.62198
G1 X116.129 Y113.124 E193.63924
G1 X116.017 Y112.667 E193.66115
G1 X115.999 Y112.625 E193.66328
G1 X115.999 Y130.246 E194.48378
G1 X115.997 Y130.253 E194.48412
G1 X115.874 Y130.614 E194.50188
G1 X115.847 Y130.674 E194.50495
G1 X115.665 Y131.014 E194.5229
G1 X115.612 Y131.097 E194.52749
G1 X115.599 Y131.115 E194.52852
G1 X115.599 Y111.877 E195.42432
G1 X115.591 Y111.864 E195.42504
G1 X115.5 Y111.746 E195.43197
G1 X115.33 Y111.549 E195.44409
G1 X115.219 Y111.434 E195.45153
G1 X115.199 Y111.415 E195.45282
G1 X115.199 Y131.592 E196.39234
G1 X115.189 Y131.602 E196.393
G1 X114.999 Y131.775 E196.40497
G1 X114.875 Y131.878 E196.41247
G1 X114.799 Y131.932 E196.41681
G1 X114.799 Y111.084 E197.38758
G1 X114.452 Y110.876 E197.40642
G1 X114.399 Y110.856 E197.40906
G1 X114.399 Y132.183 E198.40213
G1 X114.15 Y132.301 E198.41497
G1 X114.081 Y132.327 E198.4184
G1 X113.999 Y132.351 E198.42238
G1 X113.999 Y110.699 E199.43058
G1 X113.988 Y110.694 E199.43115
G1 X113.599 Y110.612 E199.44966
G1 X113.599 Y132.455 E200.46676
G1 X113.278 Y132.496 E200.48183
G1 X113.199 Y132.498 E200.48551
G1 X113.199 Y110.569 E201.50661
G1 X112.799 Y110.55 E201.52526
G1 X112.799 Y132.502 E202.54744
G1 X112.399 Y132.5 E202.56606
G1 X112.399 Y110.549 E203.5882
G1 X111.999 Y110.549 E203.60682
G1 X111.999 Y132.498 E204.62886
G1 X111.599 Y132.496 E204.64748
G1 X111.599 Y110.549 E205.66943
G1 X111.199 Y110.549 E205.68805
G1 X111.199 Y132.494 E206.70991
G1 X110.799 Y132.492 E206.72853
G1 X110.799 Y110.548 E207.75034
G1 X110.399 Y110.548 E207.76896
G1 X110.399 Y132.491 E208.79072
G1 X109.999 Y132.489 E208.80935
G1 X109.999 Y110.548 E209.83101
G1 X109.599 Y110.548 E209.84964
G1 X109.599 Y132.487 E210.87121
G1 X109.199 Y132.485 E210.88983
G1 X109.199 Y110.548 E211.91131
G1 X108.799 Y110.547 E211.92994
G1 X108.799 Y132.483 E212.95137
G1 X108.399 Y132.481 E212.97
G1 X108.399 Y110.547 E213.99133
G1 X107.999 Y110.547 E214.00996
G1 X107.999 Y132.479 E215.03121
G1 X107.599 Y132.477 E215.04983
G1 X107.599 Y110.547 E216.07098
G1 X107.199 Y110.546 E216.08961
G1 X107.199 Y132.475 E217.11072
G1 X106.799 Y132.473 E217.12934
G1 X106.799 Y110.546 E218.15036
G1 X106.399 Y110.546 E218.16898
G1 X106.399 Y132.471 E219.1899
G1 X105.999 Y132.469 E219.20853
G1 X105.999 Y110.546 E220.22935
